X:1
T:Title
%%score 1 2
L:1/8
Q:1/4=84
M:2/4
K:Ab
V:1 treble nm="Grand Piano, Unnamed-000"
V:2 bass nm="Choir Pad, Dare to Be a Daniel"
V:1
 [Ec]>[Ec] [DB][CA] | [CG][CA] [CA]2 | [EB]>[Ec] [EB]E | [Ec]4 | [Fd]>[Fd] [Fd][Fd] | %5
w: By~Philip~Paul~Bliss,~1873 * * *|||||
 [Fd][Ec] [Ec][Ec] | [=DB]>[DF] [DB][Dc] | [EB]4 | [Ec]>[Ec] [DB][CA] | [CE]2 [CA]2 | %10
w: |||||
 [EB]>[Ec] [EB]E | [Ec]4 | [Fd]>[Fc] [FB][FA] | [EG][DF] [DB][Fd] | [Ec]>[Ed] [Ec][DB] | [CA]4- | %16
w: ||||||
 [CA]2 z2 |] %17
w: |
V:2
 [A,,A,]>[A,,A,] [A,,A,][A,,A,] | [A,,A,][A,,E,] [A,,E,]2 | [E,G,]>[E,G,] [E,G,][E,G,] | A,4 | %4
 [D,A,]>[D,A,] [D,A,][D,A,] | [A,,A,][A,,A,] [A,,A,][A,,A,] | [B,,A,]>[B,,A,] [B,,A,][B,,A,] | %7
 [E,G,]4 | [A,,A,]>[A,,A,] [A,,A,][A,,A,] | [A,,A,]2 [A,,A,]2 | [E,G,]>[E,G,] [E,G,][E,G,] | %11
 [A,,A,]4 | [D,A,]>[D,A,] [D,A,][D,A,] | [D,A,][D,A,] [D,A,]2 | [E,A,]>[E,B,] [E,A,][E,G,] | %15
 [A,,A,]4- | [A,,A,]2 z2 |] %17

